X:1
T:Title
%%score { ( 1 4 ) | ( 2 3 ) }
L:1/8
Q:1/4=100
M:4/4
K:Eb
V:1 treble nm="Grand Piano"
V:4 treble 
V:2 bass 
V:3 bass 
V:1
 [B,EG]2 [B,EG]2 [B,GB][B,FA][B,EG][B,FA] | [EGB]2 [EAc]2 [EGB]2 [EG]2 | %2
w: W.~H.~Doane * * * * *||
 [DF]2 [DF]2 [FA][EG][DF][EG] | [FA]2 [DB]2 G4 | G2 G2 [GB][FA][EG][FA] | [GB]2 [EG][GB] [Ge]4 | %6
w: ||||
 d2 d2 dcBc |[M:9/8] z2 =A- A z z z3 |[M:4/4] [Ge]3 [Fd] [Ee]2 [GB]2 | [Ac]3 [Ac] [GB]2 [EG]2 | %10
w: ||||
 [GB]2 [GB]2 [Ac][GB][EG][Ge] | z4 d4 | e3 [Ad] [Ge]2 [GB]2 | [Ac]3 [Ac] [GB]2 G2 | B2 B2 cBGE | %15
w: |||||
 G2 [DF]2 E4 |] %16
w: |
V:2
 E,2 E,2 E,E,E,E, | E,2 E,2 z2 B,2 | [B,,B,]2 [B,,B,]2 [B,,B,][B,,B,][B,,B,][B,,B,] | %3
 [B,,B,]2 [B,,B,]2 [E,B,D]4 | [E,B,E]2 [E,B,E]2 [E,B,][E,B,][E,B,][E,B,] | [E,E]2 [E,B,]2 [E,B,]4 | %6
 [F,B,F]2 [F,B,F]2 [F,B,F][F,EF][F,DF][F,EF] |[M:9/8] [F,DF]2 F z [B,,B,]2- [B,,B,] z z | %8
[M:4/4] [E,B,]3 [A,B,] [G,B,]2 [E,E]2 | [A,E]3 [A,E] [E,E]2 [E,B,]2 | %10
 [E,E]2 [E,E]2 [E,E][E,E][E,B,][E,B,] | [F,B,F]2 [F,=A,F]2 [B,F]4 | %12
 [G,B,E]3 [F,B,] [E,B,]2 [E,E]2 | [A,E]3 [A,E] [E,E]2 [E,B,E]2 | %14
 [E,G,E]2 [E,G,E]2 [E,A,E][E,G,E][E,B,E][G,B,] | [B,E]2 [B,,A,]2 [E,G,]4 |] %16
V:3
 x8 | z4 E,4 | x8 | x8 | x8 | x8 | x8 |[M:9/8] z2 [F,C]- [F,C] z z z3 |[M:4/4] x8 | x8 | x8 | x8 | %12
 x8 | x8 | x8 | x8 |] %16
V:4
 x8 | x8 | x8 | x8 | x8 | x8 | x8 |[M:9/8] .B3 E [DB]2- [DB] z z |[M:4/4] x8 | x8 | x8 | %11
 d2 c2 z2 A,2 | x8 | x8 | x8 | x8 |] %16

